public/images/icn-total.svg

<svg xmlns="http://www.w3.org/2000/svg" width="24" height="24" fill="none"><path fill="#fff" d="M16.51 1.75H6.99a5.24 5.24 0 0 0-5.24 5.24v9.52a5.24 5.24 0 0 0 5.24 5.24h9.52a5.24 5.24 0 0 0 5.24-5.24V6.99a5.24 5.24 0 0 0-5.24-5.24"/><path fill="#26807C" d="M16.5 22.5H6.99c-3.31 0-5.99-2.69-5.99-6V7c0-3.31 2.69-6 5.99-6h9.51c3.31 0 6 2.69 6 6v9.51c0 3.31-2.69 6-6 6zm-9.51-20C4.52 2.5 2.5 4.52 2.5 7v9.51c0 2.48 2.02 4.5 4.49 4.5h9.51c2.48 0 4.5-2.02 4.5-4.5V7c0-2.48-2.02-4.5-4.5-4.5z"/><path fill="#26807C" d="M15.75 10.5h-8c-.41 0-.75-.34-.75-.75S7.34 9 7.75 9h8c.41 0 .75.34.75.75s-.34.75-.75.75m0 4h-8c-.41 0-.75-.34-.75-.75s.34-.75.75-.75h8c.41 0 .75.34.75.75s-.34.75-.75.75"/></svg>

<svg width="24" height="24" viewBox="0 0 24 24" fill="none" xmlns="http://www.w3.org/2000/svg">
<g id="icn-total">
<g id="Vector">
<path d="M16.51 1.75H6.99C4.09603 1.75 1.75 4.09603 1.75 6.99V16.51C1.75 19.404 4.09603 21.75 6.99 21.75H16.51C19.404 21.75 21.75 19.404 21.75 16.51V6.99C21.75 4.09603 19.404 1.75 16.51 1.75Z" fill="white"/>
<path d="M16.5 22.5H6.99C3.68 22.5 1 19.81 1 16.5V7C1 3.69 3.69 1 6.99 1H16.5C19.81 1 22.5 3.69 22.5 7V16.51C22.5 19.82 19.81 22.51 16.5 22.51V22.5ZM6.99 2.5C4.52 2.5 2.5 4.52 2.5 7V16.51C2.5 18.99 4.52 21.01 6.99 21.01H16.5C18.98 21.01 21 18.99 21 16.51V7C21 4.52 18.98 2.5 16.5 2.5H6.99Z" fill="#26807C"/>
<path d="M15.75 10.5H7.75C7.34 10.5 7 10.16 7 9.75C7 9.34 7.34 9 7.75 9H15.75C16.16 9 16.5 9.34 16.5 9.75C16.5 10.16 16.16 10.5 15.75 10.5Z" fill="#26807C"/>
<path d="M15.75 14.5H7.75C7.34 14.5 7 14.16 7 13.75C7 13.34 7.34 13 7.75 13H15.75C16.16 13 16.5 13.34 16.5 13.75C16.5 14.16 16.16 14.5 15.75 14.5Z" fill="#26807C"/>
</g>
</g>
</svg>
